X:115
T:the Infant Lyra
B:Goulding and d'Almaine's Twenty-four Country Dances For the year 1826.
L:1/16
M:2/4
O:England
Z:Richard Robinson 
%%Dancenotes:Right and left, lead down the middle and up again
%%TUNEURL: http://www.leeds.ac.uk/music/Info/RRTuneBk/gettune/00000df1.html
%%ID:00000df1
K:Eb
%%graceslurs 0
BG |\
(E2G2B2e2) | d2f2B2 A2 | G2B2E2A2   | (G4 {AG}F2) B2 |\
(E2G2B2e2) | d2f2B2 g2 | f2B2 dcB=A | B4 z2 ::
Bc |\
.d2(de) .f2(fg) | agfe dcBA | G2GA B2c2 | F4 z2 Bc |\
.d2(de) .f2(fg) | agfe dcBA | G2e2 gfed | e4 z2 :|
